img/house-hover.svg

<svg width="105" height="78" viewBox="0 0 105 78" fill="none" xmlns="http://www.w3.org/2000/svg">
<path fill-rule="evenodd" clip-rule="evenodd" d="M23.4705 13.5468C10.7558 21.0041 0.290321 27.2697 0.213726 27.4699C0.0386493 27.9272 0.537303 28.5605 1.07269 28.5605C1.40539 28.5605 5.9222 26.0267 9.65768 23.7445L10.5044 23.2271V49.3033V75.3799H5.56345C0.838218 75.3799 0.609993 75.4037 0.334873 75.9258C-0.387577 77.296 -2.21207 77.2315 37.2087 77.2315C70.2309 77.2315 73.7825 77.191 74.092 76.8125C74.3403 76.5086 74.3593 76.2726 74.1605 75.9528C73.9078 75.5462 71.5042 75.5068 43.1061 75.4449L12.3255 75.3778L12.3919 48.7433L12.4584 22.1089L29.5218 12.1089C38.9066 6.60883 46.7111 2.10888 46.8653 2.10888C47.0195 2.10888 54.2693 6.284 62.976 11.3868C71.9476 16.6451 78.9686 20.6015 79.1815 20.5187C79.8127 20.2727 79.9128 19.5561 79.3857 19.0551C78.7946 18.4933 47.6453 0.241659 47.0227 0.0922073C46.7824 0.0345428 36.2341 6.06049 23.4705 13.5468ZM71.3382 26.1555L60.6565 31.3924L60.589 45.885L60.5218 60.3773L61.1374 61.7285C63.6114 67.1579 71.1485 73.0008 80.1183 76.4427L82.3852 77.3124L85.5574 76.033C93.817 72.7014 100.689 67.2925 103.242 62.1138L104.295 59.9766V45.8882C104.295 34.3002 104.232 31.7463 103.939 31.4995C103.441 31.0792 82.6085 20.8864 82.2846 20.9041C82.139 20.912 77.2132 23.2752 71.3382 26.1555ZM93.0273 28.0492L102.472 32.6531V46.222V59.7909L101.832 61.0725C99.3236 66.098 92.6803 71.2325 84.3264 74.6019L82.3354 75.4047L79.9631 74.4461C76.9951 73.2468 73.3873 71.3359 70.9226 69.6584C67.226 67.142 63.4697 62.9656 62.3892 60.1702C62.1649 59.5898 62.1008 55.7879 62.1511 46.0257L62.2196 32.6748L72.2501 27.741C81.4254 23.2278 82.336 22.8342 82.9318 23.1263C83.29 23.3019 87.8331 25.5172 93.0273 28.0492ZM33.3466 32.173C33.2497 32.2714 33.1705 37.7352 33.1705 44.3151C33.1705 54.9798 33.2153 56.2956 33.5827 56.4387C33.8094 56.527 39.3547 56.5992 45.9058 56.5992C54.8224 56.5992 57.8954 56.5193 58.1293 56.2818C58.5707 55.8337 58.5175 55.0981 58.0298 54.9082C57.8031 54.8198 55.2825 54.7476 52.4284 54.7476H47.2392V44.2992V33.8508H52.4C57.8552 33.8508 58.6022 33.7006 58.4016 32.643C58.3075 32.1471 57.9282 32.1294 45.9138 32.0627C39.0989 32.0251 33.4436 32.0746 33.3466 32.173ZM45.4154 44.2992V54.7476H40.0746H34.7337V44.2992V33.8508H40.0746H45.4154V44.2992Z" fill="white"/>
<path fill-rule="evenodd" clip-rule="evenodd" d="M91.0349 44.4502C91.456 44.8048 91.5129 45.4372 91.162 45.8627L81.2365 57.8971C81.0579 58.1135 80.7975 58.2441 80.5189 58.2569C80.2403 58.2697 79.9693 58.1634 79.7721 57.9642L73.8168 51.947C73.4292 51.5553 73.4292 50.9204 73.8168 50.5287C74.2044 50.1371 74.8328 50.1371 75.2205 50.5287L80.4073 55.7694L89.637 44.5786C89.9879 44.1532 90.6138 44.0957 91.0349 44.4502Z" fill="white"/>
</svg>

<svg width="105" height="78" fill="none" xmlns="http://www.w3.org/2000/svg"><path fill-rule="evenodd" clip-rule="evenodd" d="M23.47 13.547C10.757 21.004.29 27.27.215 27.47c-.175.457.323 1.09.859 1.09.332 0 4.85-2.533 8.585-4.816l.846-.517V75.38h-4.94c-4.726 0-4.954.024-5.23.546-.722 1.37-2.546 1.305 36.875 1.305 33.022 0 36.573-.04 36.883-.418.248-.304.267-.54.069-.86-.253-.407-2.657-.446-31.055-.508l-30.78-.067.066-26.635.066-26.634 17.064-10c9.385-5.5 17.19-10 17.343-10 .154 0 7.404 4.175 16.111 9.278 8.972 5.258 15.993 9.215 16.206 9.132.63-.246.73-.963.204-1.464C78.795 18.493 47.646.242 47.023.092 46.783.035 36.234 6.06 23.47 13.547zm47.868 12.608l-10.681 5.237-.068 14.493-.067 14.492.615 1.351c2.474 5.43 10.011 11.273 18.981 14.715l2.267.87 3.172-1.28c8.26-3.332 15.132-8.74 17.685-13.92l1.053-2.136V45.888c0-11.588-.063-14.142-.356-14.388-.498-.42-21.33-10.614-21.654-10.596-.146.008-5.072 2.371-10.947 5.252zm21.69 1.894l9.444 4.604v27.138l-.64 1.282c-2.508 5.025-9.152 10.16-17.506 13.529l-1.99.803-2.373-.959c-2.968-1.2-6.576-3.11-9.04-4.788-3.697-2.516-7.453-6.692-8.534-9.488-.224-.58-.288-4.382-.238-14.144l.069-13.351 10.03-4.934c9.175-4.513 10.086-4.907 10.682-4.615.358.176 4.901 2.391 10.095 4.923zm-59.681 4.124c-.097.098-.177 5.562-.177 12.142 0 10.665.045 11.98.413 12.124.226.088 5.772.16 12.323.16 8.916 0 11.99-.08 12.223-.317.442-.448.389-1.184-.1-1.374-.226-.088-2.747-.16-5.6-.16h-5.19V33.85H52.4c5.455 0 6.202-.15 6.002-1.208-.095-.496-.474-.514-12.488-.58-6.815-.038-12.47.012-12.567.11zm12.068 12.126v10.449H34.734V33.85h10.681v10.448z" fill="#87121D"/><path fill-rule="evenodd" clip-rule="evenodd" d="M91.035 44.45c.421.355.478.987.127 1.413l-9.925 12.034a.99.99 0 01-1.465.067l-5.955-6.017a1.01 1.01 0 010-1.418.985.985 0 011.404 0l5.186 5.24 9.23-11.19a.986.986 0 011.398-.129z" fill="#87121D"/></svg>
